public/img/logo.svg

<?xml version="1.0" standalone="no"?>
<!DOCTYPE svg PUBLIC "-//W3C//DTD SVG 20010904//EN"
 "http://www.w3.org/TR/2001/REC-SVG-20010904/DTD/svg10.dtd">
<svg version="1.0" xmlns="http://www.w3.org/2000/svg"
 width="500.000000pt" height="500.000000pt" viewBox="0 0 500.000000 500.000000"
 preserveAspectRatio="xMidYMid meet">

<g transform="translate(0.000000,500.000000) scale(0.100000,-0.100000)"
fill="#000000" stroke="none">
<path d="M1600 3000 l0 -440 435 0 435 0 0 440 0 440 -435 0 -435 0 0 -440z
m575 -2 c49 -112 90 -206 92 -210 2 -5 -13 -8 -34 -8 -37 0 -40 2 -60 50 l-21
50 -106 0 -105 0 -22 -50 c-20 -46 -24 -50 -55 -50 -19 0 -34 3 -34 6 0 5 72
171 154 357 25 55 27 57 64 57 l39 0 88 -202z"/>
<path d="M2011 3045 c-18 -42 -35 -83 -38 -91 -4 -11 9 -14 71 -14 42 0 76 4
76 8 0 10 -64 160 -72 168 -3 3 -20 -29 -37 -71z"/>
<path d="M3460 2950 l0 -440 435 0 435 0 0 440 0 440 -435 0 -435 0 0 -440z
m543 179 c46 -24 88 -74 102 -124 58 -193 -155 -347 -332 -239 -57 34 -103
114 -103 176 0 72 48 151 113 185 61 31 161 32 220 2z"/>
<path d="M3817 3068 c-103 -60 -94 -209 16 -258 23 -11 51 -20 62 -20 38 0
104 38 125 72 30 50 28 128 -6 168 -53 63 -128 77 -197 38z"/>
<path d="M680 2785 l0 -435 435 0 435 0 0 435 0 435 -435 0 -435 0 0 -435z
m364 48 l68 -138 69 138 69 137 45 0 45 0 -2 -207 -3 -208 -32 -3 -33 -3 -1
158 -1 158 -64 -132 c-57 -118 -66 -133 -89 -133 -22 0 -33 15 -89 128 l-65
127 0 -152 -1 -153 -35 0 -35 0 0 210 0 210 43 0 42 0 69 -137z"/>
<path d="M2530 2615 l0 -435 440 0 440 0 0 435 0 435 -440 0 -440 0 0 -435z
m555 184 c17 -5 41 -19 54 -30 23 -19 23 -20 5 -42 -10 -12 -19 -23 -20 -25
-1 -2 -19 8 -39 23 -123 83 -276 -44 -217 -179 37 -82 130 -110 217 -66 l39
20 21 -21 c20 -20 20 -20 0 -36 -73 -56 -160 -67 -240 -29 -59 27 -77 46 -104
106 -36 78 -22 162 37 223 64 68 148 87 247 56z"/>
<path d="M1461 1871 c-14 -14 -21 -34 -21 -57 0 -32 8 -44 65 -99 70 -66 79
-91 45 -125 -38 -38 -100 -19 -113 35 -3 12 -5 4 -6 -17 -1 -35 1 -38 38 -48
45 -12 96 2 111 30 6 10 10 34 10 52 0 28 -11 44 -65 98 -36 35 -65 72 -65 82
0 24 35 58 60 58 11 0 29 -9 41 -21 l21 -21 -4 24 c-3 20 -9 23 -50 26 -37 2
-51 -1 -67 -17z"/>
<path d="M1737 1875 c12 -8 42 -49 67 -90 42 -69 46 -81 46 -140 0 -50 -4 -66
-17 -74 -14 -8 -7 -10 32 -10 39 0 46 2 33 10 -14 8 -18 23 -18 71 0 55 5 68
50 142 27 46 60 88 72 94 20 9 17 11 -26 11 -40 1 -46 -1 -37 -13 9 -10 3 -28
-26 -80 -20 -36 -39 -66 -42 -66 -8 0 -71 123 -71 137 0 6 6 14 13 16 6 3 -13
6 -43 6 -51 1 -53 0 -33 -14z"/>
<path d="M2172 1867 c-40 -42 -30 -77 43 -148 48 -46 65 -70 65 -89 0 -37 -31
-62 -72 -58 -26 2 -36 10 -50 38 l-18 35 0 -31 c0 -37 13 -50 60 -58 43 -8 80
10 98 48 21 42 8 71 -63 139 -36 35 -65 71 -65 80 0 23 36 57 60 57 11 0 29
-9 40 -20 l20 -20 0 25 c0 23 -3 25 -48 25 -38 0 -53 -5 -70 -23z"/>
<path d="M2430 1868 c0 -17 3 -19 12 -10 7 7 34 12 60 12 l48 0 0 -149 c0
-110 -3 -151 -12 -154 -7 -3 6 -6 30 -6 40 -1 42 0 28 15 -13 13 -16 42 -16
156 l0 140 60 -4 c43 -2 60 1 60 10 0 9 -34 12 -135 12 -132 0 -135 0 -135
-22z"/>
<path d="M2853 1879 c15 -9 17 -27 17 -154 0 -127 -2 -145 -17 -154 -13 -8 8
-10 79 -11 l96 0 11 31 c15 43 14 44 -12 13 -18 -21 -35 -28 -75 -32 l-52 -5
0 73 0 72 55 -4 c53 -3 55 -2 55 22 0 19 -3 21 -12 12 -7 -7 -31 -12 -55 -12
l-43 0 0 70 0 70 53 0 c29 0 58 -5 65 -12 9 -9 12 -7 12 10 0 21 -4 22 -97 22
-72 -1 -93 -3 -80 -11z"/>
<path d="M3246 1860 c-3 -19 -12 -89 -20 -154 -11 -93 -18 -123 -32 -133 -16
-12 -14 -13 17 -13 l34 0 3 112 c2 61 6 116 9 121 3 5 30 -46 61 -112 30 -67
57 -119 60 -116 4 4 64 133 105 225 9 21 12 8 22 -90 8 -74 8 -119 2 -127 -7
-10 1 -13 34 -13 36 0 40 2 26 13 -12 9 -21 51 -35 167 l-19 155 -39 -85 c-21
-47 -51 -110 -65 -140 l-27 -55 -42 90 c-23 50 -52 113 -65 140 l-22 50 -7
-35z"/>
</g>
</svg>

<?xml version="1.0" encoding="UTF-8" standalone="no" ?>
<!DOCTYPE svg PUBLIC "-//W3C//DTD SVG 1.1//EN" "http://www.w3.org/Graphics/SVG/1.1/DTD/svg11.dtd">
<svg xmlns="http://www.w3.org/2000/svg" xmlns:xlink="http://www.w3.org/1999/xlink" version="1.1" width="370" height="195" viewBox="0 0 370 195" xml:space="preserve">
<desc>Created with Fabric.js 5.2.4</desc>
<defs>
</defs>
<g transform="matrix(1 0 0 1 185 97.5)" id="b0d89807-6eb7-4997-83bf-5df27c1ecb0e"  >
<rect style="stroke: none; stroke-width: 1; stroke-dasharray: none; stroke-linecap: butt; stroke-dashoffset: 0; stroke-linejoin: miter; stroke-miterlimit: 4; fill: rgb(255,255,255); fill-rule: nonzero; opacity: 1; visibility: hidden;" vector-effect="non-scaling-stroke"  x="-185" y="-97.5" rx="0" ry="0" width="370" height="195" />
</g>
<g transform="matrix(Infinity NaN NaN Infinity 0 0)" id="4930eef5-28f6-4684-be2f-7a5005e69e0e"  >
</g>
<g transform="matrix(0.73 0 0 0.73 185 97.5)"  >
<g style="" vector-effect="non-scaling-stroke"   >
		<g transform="matrix(0.13 0 0 -0.13 -62.67 -67.06)"  >
<path style="stroke: none; stroke-width: 1; stroke-dasharray: none; stroke-linecap: butt; stroke-dashoffset: 0; stroke-linejoin: miter; stroke-miterlimit: 4; fill: rgb(0,0,0); fill-rule: nonzero; opacity: 1;" vector-effect="non-scaling-stroke"  transform=" translate(-2035, -3000)" d="M 1600 3000 L 1600 2560 L 2035 2560 L 2470 2560 L 2470 3000 L 2470 3440 L 2035 3440 L 1600 3440 L 1600 3000 z M 2175 2998 C 2224 2886 2265 2792 2267 2788 C 2269 2783 2254 2780 2233 2780 C 2196 2780 2193 2782 2173 2830 L 2152 2880 L 2046 2880 L 1941 2880 L 1919 2830 C 1899 2784 1895 2780 1864 2780 C 1845 2780 1830 2783 1830 2786 C 1830 2791 1902 2957 1984 3143 C 2009 3198 2011 3200 2048 3200 L 2087 3200 L 2175 2998 z" stroke-linecap="round" />
</g>
		<g transform="matrix(0.13 0 0 -0.13 -61.18 -70.8)"  >
<path style="stroke: none; stroke-width: 1; stroke-dasharray: none; stroke-linecap: butt; stroke-dashoffset: 0; stroke-linejoin: miter; stroke-miterlimit: 4; fill: rgb(0,0,0); fill-rule: nonzero; opacity: 1;" vector-effect="non-scaling-stroke"  transform=" translate(-2046.17, -3028.1)" d="M 2011 3045 C 1993 3003 1976 2962 1973 2954 C 1969 2943 1982 2940 2044 2940 C 2086 2940 2120 2944 2120 2948 C 2120 2958 2056 3108 2048 3116 C 2045 3119 2028 3087 2011 3045 z" stroke-linecap="round" />
</g>
		<g transform="matrix(0.13 0 0 -0.13 185.33 -60.39)"  >
<path style="stroke: none; stroke-width: 1; stroke-dasharray: none; stroke-linecap: butt; stroke-dashoffset: 0; stroke-linejoin: miter; stroke-miterlimit: 4; fill: rgb(0,0,0); fill-rule: nonzero; opacity: 1;" vector-effect="non-scaling-stroke"  transform=" translate(-3895, -2950)" d="M 3460 2950 L 3460 2510 L 3895 2510 L 4330 2510 L 4330 2950 L 4330 3390 L 3895 3390 L 3460 3390 L 3460 2950 z M 4003 3129 C 4049 3105 4091 3055 4105 3005 C 4163 2812 3950 2658 3773 2766 C 3716 2800 3670 2880 3670 2942 C 3670 3014 3718 3093 3783 3127 C 3844 3158 3944 3159 4003 3129 z" stroke-linecap="round" />
</g>
		<g transform="matrix(0.13 0 0 -0.13 185.06 -59.04)"  >
<path style="stroke: none; stroke-width: 1; stroke-dasharray: none; stroke-linecap: butt; stroke-dashoffset: 0; stroke-linejoin: miter; stroke-miterlimit: 4; fill: rgb(0,0,0); fill-rule: nonzero; opacity: 1;" vector-effect="non-scaling-stroke"  transform=" translate(-3892.97, -2939.86)" d="M 3817 3068 C 3714 3008 3723 2859 3833 2810 C 3856 2799 3884 2790 3895 2790 C 3933 2790 3999 2828 4020 2862 C 4050 2912 4048 2990 4014 3030 C 3961 3093 3886 3107 3817 3068 z" stroke-linecap="round" />
</g>
		<g transform="matrix(0.13 0 0 -0.13 -185.33 -38.39)"  >
<path style="stroke: none; stroke-width: 1; stroke-dasharray: none; stroke-linecap: butt; stroke-dashoffset: 0; stroke-linejoin: miter; stroke-miterlimit: 4; fill: rgb(0,0,0); fill-rule: nonzero; opacity: 1;" vector-effect="non-scaling-stroke"  transform=" translate(-1115, -2785)" d="M 680 2785 L 680 2350 L 1115 2350 L 1550 2350 L 1550 2785 L 1550 3220 L 1115 3220 L 680 3220 L 680 2785 z M 1044 2833 L 1112 2695 L 1181 2833 L 1250 2970 L 1295 2970 L 1340 2970 L 1338 2763 L 1335 2555 L 1303 2552 L 1270 2549 L 1269 2707 L 1268 2865 L 1204 2733 C 1147 2615 1138 2600 1115 2600 C 1093 2600 1082 2615 1026 2728 L 961 2855 L 961 2703 L 960 2550 L 925 2550 L 890 2550 L 890 2760 L 890 2970 L 933 2970 L 975 2970 L 1044 2833 z" stroke-linecap="round" />
</g>
		<g transform="matrix(0.13 0 0 -0.13 62 -15.72)"  >
<path style="stroke: none; stroke-width: 1; stroke-dasharray: none; stroke-linecap: butt; stroke-dashoffset: 0; stroke-linejoin: miter; stroke-miterlimit: 4; fill: rgb(0,0,0); fill-rule: nonzero; opacity: 1;" vector-effect="non-scaling-stroke"  transform=" translate(-2970, -2615)" d="M 2530 2615 L 2530 2180 L 2970 2180 L 3410 2180 L 3410 2615 L 3410 3050 L 2970 3050 L 2530 3050 L 2530 2615 z M 3085 2799 C 3102 2794 3126 2780 3139 2769 C 3162 2750 3162 2749 3144 2727 C 3134 2715 3125 2704 3124 2702 C 3123 2700 3105 2710 3085 2725 C 2962 2808 2809 2681 2868 2546 C 2905 2464 2998 2436 3085 2480 L 3124 2500 L 3145 2479 C 3165 2459 3165 2459 3145 2443 C 3072 2387 2985 2376 2905 2414 C 2846 2441 2828 2460 2801 2520 C 2765 2598 2779 2682 2838 2743 C 2902 2811 2986 2830 3085 2799 z" stroke-linecap="round" />
</g>
		<g transform="matrix(0.13 0 0 -0.13 -132.61 103.33)"  >
<path style="stroke: none; stroke-width: 1; stroke-dasharray: none; stroke-linecap: butt; stroke-dashoffset: 0; stroke-linejoin: miter; stroke-miterlimit: 4; fill: rgb(0,0,0); fill-rule: nonzero; opacity: 1;" vector-effect="non-scaling-stroke"  transform=" translate(-1510.41, -1722.12)" d="M 1461 1871 C 1447 1857 1440 1837 1440 1814 C 1440 1782 1448 1770 1505 1715 C 1575 1649 1584 1624 1550 1590 C 1512 1552 1450 1571 1437 1625 C 1434 1637 1432 1629 1431 1608 C 1430 1573 1432 1570 1469 1560 C 1514 1548 1565 1562 1580 1590 C 1586 1600 1590 1624 1590 1642 C 1590 1670 1579 1686 1525 1740 C 1489 1775 1460 1812 1460 1822 C 1460 1846 1495 1880 1520 1880 C 1531 1880 1549 1871 1561 1859 L 1582 1838 L 1578 1862 C 1575 1882 1569 1885 1528 1888 C 1491 1890 1477 1887 1461 1871 z" stroke-linecap="round" />
</g>
		<g transform="matrix(0.13 0 0 -0.13 -84.73 102.92)"  >
<path style="stroke: none; stroke-width: 1; stroke-dasharray: none; stroke-linecap: butt; stroke-dashoffset: 0; stroke-linejoin: miter; stroke-miterlimit: 4; fill: rgb(0,0,0); fill-rule: nonzero; opacity: 1;" vector-effect="non-scaling-stroke"  transform=" translate(-1869.55, -1725.14)" d="M 1737 1875 C 1749 1867 1779 1826 1804 1785 C 1846 1716 1850 1704 1850 1645 C 1850 1595 1846 1579 1833 1571 C 1819 1563 1826 1561 1865 1561 C 1904 1561 1911 1563 1898 1571 C 1884 1579 1880 1594 1880 1642 C 1880 1697 1885 1710 1930 1784 C 1957 1830 1990 1872 2002 1878 C 2022 1887 2019 1889 1976 1889 C 1936 1890 1930 1888 1939 1876 C 1948 1866 1942 1848 1913 1796 C 1893 1760 1874 1730 1871 1730 C 1863 1730 1800 1853 1800 1867 C 1800 1873 1806 1881 1813 1883 C 1819 1886 1800 1889 1770 1889 C 1719 1890 1717 1889 1737 1875 z" stroke-linecap="round" />
</g>
		<g transform="matrix(0.13 0 0 -0.13 -37.53 103.33)"  >
<path style="stroke: none; stroke-width: 1; stroke-dasharray: none; stroke-linecap: butt; stroke-dashoffset: 0; stroke-linejoin: miter; stroke-miterlimit: 4; fill: rgb(0,0,0); fill-rule: nonzero; opacity: 1;" vector-effect="non-scaling-stroke"  transform=" translate(-2223.56, -1722.07)" d="M 2172 1867 C 2132 1825 2142 1790 2215 1719 C 2263 1673 2280 1649 2280 1630 C 2280 1593 2249 1568 2208 1572 C 2182 1574 2172 1582 2158 1610 L 2140 1645 L 2140 1614 C 2140 1577 2153 1564 2200 1556 C 2243 1548 2280 1566 2298 1604 C 2319 1646 2306 1675 2235 1743 C 2199 1778 2170 1814 2170 1823 C 2170 1846 2206 1880 2230 1880 C 2241 1880 2259 1871 2270 1860 L 2290 1840 L 2290 1865 C 2290 1888 2287 1890 2242 1890 C 2204 1890 2189 1885 2172 1867 z" stroke-linecap="round" />
</g>
		<g transform="matrix(0.13 0 0 -0.13 8 102.89)"  >
<path style="stroke: none; stroke-width: 1; stroke-dasharray: none; stroke-linecap: butt; stroke-dashoffset: 0; stroke-linejoin: miter; stroke-miterlimit: 4; fill: rgb(0,0,0); fill-rule: nonzero; opacity: 1;" vector-effect="non-scaling-stroke"  transform=" translate(-2565, -1725.36)" d="M 2430 1868 C 2430 1851 2433 1849 2442 1858 C 2449 1865 2476 1870 2502 1870 L 2550 1870 L 2550 1721 C 2550 1611 2547 1570 2538 1567 C 2531 1564 2544 1561 2568 1561 C 2608 1560 2610 1561 2596 1576 C 2583 1589 2580 1618 2580 1732 L 2580 1872 L 2640 1868 C 2683 1866 2700 1869 2700 1878 C 2700 1887 2666 1890 2565 1890 C 2433 1890 2430 1890 2430 1868 z" stroke-linecap="round" />
</g>
		<g transform="matrix(0.13 0 0 -0.13 59.21 102.94)"  >
<path style="stroke: none; stroke-width: 1; stroke-dasharray: none; stroke-linecap: butt; stroke-dashoffset: 0; stroke-linejoin: miter; stroke-miterlimit: 4; fill: rgb(0,0,0); fill-rule: nonzero; opacity: 1;" vector-effect="non-scaling-stroke"  transform=" translate(-2949.07, -1725)" d="M 2853 1879 C 2868 1870 2870 1852 2870 1725 C 2870 1598 2868 1580 2853 1571 C 2840 1563 2861 1561 2932 1560 L 3028 1560 L 3039 1591 C 3054 1634 3053 1635 3027 1604 C 3009 1583 2992 1576 2952 1572 L 2900 1567 L 2900 1640 L 2900 1712 L 2955 1708 C 3008 1705 3010 1706 3010 1730 C 3010 1749 3007 1751 2998 1742 C 2991 1735 2967 1730 2943 1730 L 2900 1730 L 2900 1800 L 2900 1870 L 2953 1870 C 2982 1870 3011 1865 3018 1858 C 3027 1849 3030 1851 3030 1868 C 3030 1889 3026 1890 2933 1890 C 2861 1889 2840 1887 2853 1879 z" stroke-linecap="round" />
</g>
		<g transform="matrix(0.13 0 0 -0.13 116.58 102.61)"  >
<path style="stroke: none; stroke-width: 1; stroke-dasharray: none; stroke-linecap: butt; stroke-dashoffset: 0; stroke-linejoin: miter; stroke-miterlimit: 4; fill: rgb(0,0,0); fill-rule: nonzero; opacity: 1;" vector-effect="non-scaling-stroke"  transform=" translate(-3379.32, -1727.5)" d="M 3246 1860 C 3243 1841 3234 1771 3226 1706 C 3215 1613 3208 1583 3194 1573 C 3178 1561 3180 1560 3211 1560 L 3245 1560 L 3248 1672 C 3250 1733 3254 1788 3257 1793 C 3260 1798 3287 1747 3318 1681 C 3348 1614 3375 1562 3378 1565 C 3382 1569 3442 1698 3483 1790 C 3492 1811 3495 1798 3505 1700 C 3513 1626 3513 1581 3507 1573 C 3500 1563 3508 1560 3541 1560 C 3577 1560 3581 1562 3567 1573 C 3555 1582 3546 1624 3532 1740 L 3513 1895 L 3474 1810 C 3453 1763 3423 1700 3409 1670 L 3382 1615 L 3340 1705 C 3317 1755 3288 1818 3275 1845 L 3253 1895 L 3246 1860 z" stroke-linecap="round" />
</g>
</g>
</g>
</svg>
